SF_Symbols/text.badge.star.svg

<?xml version="1.0" encoding="UTF-8"?>
<svg xmlns="http://www.w3.org/2000/svg" xmlns:xlink="http://www.w3.org/1999/xlink" width="24" height="24" viewBox="0 0 24 24" version="1.1">
<g id="surface1">
<path style=" stroke:none;fill-rule:nonzero;fill:rgb(100%,100%,100%);fill-opacity:1;" d="M 14.882812 4.183594 L 22.898438 4.183594 C 23.148438 4.183594 23.359375 4.097656 23.53125 3.925781 C 23.710938 3.753906 23.800781 3.542969 23.800781 3.292969 C 23.800781 3.050781 23.710938 2.84375 23.53125 2.671875 C 23.359375 2.5 23.148438 2.414062 22.898438 2.414062 L 14.882812 2.414062 C 14.640625 2.414062 14.433594 2.5 14.261719 2.671875 C 14.089844 2.84375 14.003906 3.050781 14.003906 3.292969 C 14.003906 3.542969 14.089844 3.753906 14.261719 3.925781 C 14.433594 4.097656 14.640625 4.183594 14.882812 4.183594 Z M 14.882812 10.324219 L 22.898438 10.324219 C 23.148438 10.324219 23.359375 10.238281 23.53125 10.066406 C 23.710938 9.894531 23.800781 9.683594 23.800781 9.433594 C 23.800781 9.183594 23.710938 8.976562 23.53125 8.8125 C 23.359375 8.640625 23.148438 8.554688 22.898438 8.554688 L 14.882812 8.554688 C 14.640625 8.554688 14.433594 8.640625 14.261719 8.8125 C 14.089844 8.976562 14.003906 9.183594 14.003906 9.433594 C 14.003906 9.683594 14.089844 9.894531 14.261719 10.066406 C 14.433594 10.238281 14.640625 10.324219 14.882812 10.324219 Z M 1.066406 16.464844 L 22.898438 16.464844 C 23.148438 16.464844 23.359375 16.378906 23.53125 16.207031 C 23.710938 16.035156 23.800781 15.824219 23.800781 15.574219 C 23.800781 15.324219 23.710938 15.117188 23.53125 14.953125 C 23.359375 14.78125 23.148438 14.695312 22.898438 14.695312 L 1.066406 14.695312 C 0.824219 14.695312 0.617188 14.78125 0.445312 14.953125 C 0.273438 15.117188 0.1875 15.324219 0.1875 15.574219 C 0.1875 15.824219 0.273438 16.035156 0.445312 16.207031 C 0.617188 16.378906 0.824219 16.464844 1.066406 16.464844 Z M 1.066406 22.59375 L 22.898438 22.59375 C 23.148438 22.59375 23.359375 22.507812 23.53125 22.335938 C 23.710938 22.171875 23.800781 21.964844 23.800781 21.714844 C 23.800781 21.464844 23.710938 21.253906 23.53125 21.082031 C 23.359375 20.910156 23.148438 20.824219 22.898438 20.824219 L 1.066406 20.824219 C 0.824219 20.824219 0.617188 20.910156 0.445312 21.082031 C 0.273438 21.253906 0.1875 21.464844 0.1875 21.714844 C 0.1875 21.964844 0.273438 22.171875 0.445312 22.335938 C 0.617188 22.507812 0.824219 22.59375 1.066406 22.59375 Z M 6.152344 12.445312 C 6.957031 12.445312 7.71875 12.289062 8.4375 11.976562 C 9.15625 11.664062 9.789062 11.234375 10.335938 10.6875 C 10.890625 10.140625 11.324219 9.507812 11.636719 8.789062 C 11.949219 8.070312 12.105469 7.304688 12.105469 6.492188 C 12.105469 5.671875 11.949219 4.902344 11.636719 4.183594 C 11.332031 3.464844 10.90625 2.832031 10.359375 2.285156 C 9.8125 1.738281 9.179688 1.3125 8.460938 1.007812 C 7.742188 0.695312 6.972656 0.539062 6.152344 0.539062 C 5.339844 0.539062 4.574219 0.695312 3.855469 1.007812 C 3.136719 1.3125 2.503906 1.742188 1.957031 2.296875 C 1.410156 2.84375 0.980469 3.476562 0.667969 4.195312 C 0.355469 4.90625 0.199219 5.671875 0.199219 6.492188 C 0.199219 7.3125 0.355469 8.082031 0.667969 8.800781 C 0.980469 9.519531 1.410156 10.152344 1.957031 10.699219 C 2.503906 11.246094 3.136719 11.675781 3.855469 11.988281 C 4.574219 12.292969 5.339844 12.445312 6.152344 12.445312 Z M 3.949219 9.949219 C 3.847656 9.949219 3.753906 9.925781 3.667969 9.878906 C 3.589844 9.824219 3.550781 9.738281 3.550781 9.621094 C 3.550781 9.566406 3.554688 9.523438 3.5625 9.492188 C 3.570312 9.460938 3.578125 9.433594 3.585938 9.410156 L 4.335938 7.136719 L 2.378906 5.707031 C 2.238281 5.605469 2.167969 5.492188 2.167969 5.367188 C 2.167969 5.132812 2.304688 5.015625 2.578125 5.015625 L 5.003906 5.015625 L 5.753906 2.71875 C 5.792969 2.601562 5.847656 2.523438 5.917969 2.484375 C 5.988281 2.4375 6.0625 2.414062 6.140625 2.414062 C 6.226562 2.414062 6.304688 2.4375 6.375 2.484375 C 6.445312 2.523438 6.496094 2.601562 6.527344 2.71875 L 7.277344 5.015625 L 9.703125 5.015625 C 9.984375 5.015625 10.125 5.132812 10.125 5.367188 C 10.125 5.492188 10.054688 5.605469 9.914062 5.707031 L 7.957031 7.136719 L 8.695312 9.410156 C 8.726562 9.496094 8.742188 9.550781 8.742188 9.574219 C 8.742188 9.683594 8.699219 9.773438 8.613281 9.84375 C 8.535156 9.914062 8.445312 9.949219 8.34375 9.949219 C 8.234375 9.949219 8.152344 9.929688 8.097656 9.890625 L 6.140625 8.472656 L 4.183594 9.890625 C 4.128906 9.929688 4.050781 9.949219 3.949219 9.949219 Z M 3.949219 9.949219 "/>
</g>
</svg>

<svg xmlns="http://www.w3.org/2000/svg" width="24" height="24"><path style="stroke:none;fill-rule:nonzero;fill:#fff;fill-opacity:1" d="M14.883 4.184h8.015a.858.858 0 0 0 .633-.258.848.848 0 0 0 .27-.633c0-.242-.09-.45-.27-.621a.873.873 0 0 0-.633-.258h-8.015a.847.847 0 0 0-.621.258.847.847 0 0 0-.258.621c0 .25.086.46.258.633a.847.847 0 0 0 .62.258Zm0 6.14h8.015a.873.873 0 0 0 .633-.258.848.848 0 0 0 .27-.632c0-.25-.09-.457-.27-.621a.873.873 0 0 0-.633-.258h-8.015a.847.847 0 0 0-.621.258.812.812 0 0 0-.258.62c0 .25.086.462.258.633a.847.847 0 0 0 .62.258Zm-13.817 6.14h21.832a.873.873 0 0 0 .633-.257.848.848 0 0 0 .27-.633c0-.25-.09-.457-.27-.62a.873.873 0 0 0-.633-.259H1.066a.847.847 0 0 0-.62.258.812.812 0 0 0-.259.621c0 .25.086.461.258.633a.847.847 0 0 0 .621.258Zm0 6.13h21.832a.873.873 0 0 0 .633-.258.798.798 0 0 0 .27-.621c0-.25-.09-.461-.27-.633a.873.873 0 0 0-.633-.258H1.066a.847.847 0 0 0-.62.258.873.873 0 0 0-.259.633c0 .25.086.457.258.62a.84.84 0 0 0 .621.259Zm5.086-10.149a5.685 5.685 0 0 0 2.285-.468 6.1 6.1 0 0 0 1.899-1.29 6.045 6.045 0 0 0 1.3-1.898 5.74 5.74 0 0 0 .47-2.297c0-.82-.157-1.59-.47-2.308a5.977 5.977 0 0 0-3.175-3.176A5.73 5.73 0 0 0 6.152.539c-.812 0-1.578.156-2.297.469-.71.3-1.355.738-1.898 1.289A6.1 6.1 0 0 0 .668 4.195a5.597 5.597 0 0 0-.469 2.297c0 .82.156 1.59.469 2.309a6.11 6.11 0 0 0 3.187 3.187c.727.305 1.508.461 2.297.457ZM3.95 9.95a.589.589 0 0 1-.281-.07c-.078-.055-.117-.14-.117-.258 0-.07.011-.14.035-.21l.75-2.274-1.957-1.43c-.14-.102-.211-.215-.211-.34 0-.234.137-.351.41-.351h2.426l.75-2.297c.039-.117.094-.196.164-.235a.417.417 0 0 1 .223-.07c.086 0 .164.023.234.07.07.04.121.118.152.235l.75 2.297h2.426c.281 0 .422.117.422.351 0 .125-.07.238-.21.34l-1.958 1.43.738 2.273c.032.086.047.14.047.164 0 .11-.043.2-.129.27a.384.384 0 0 1-.27.105.392.392 0 0 1-.245-.058L6.14 8.473 4.184 9.89a.412.412 0 0 1-.235.058Zm0 0"/></svg>
